!!!COM: Beethoven
!!!OTL: 13 Variationen uber "Es war einmal ein alter Mann" aus "Das rote Kappchen" von K. Ditters von Dittersdorf
!!!Variation: Variation 4 e
**function	**harm	**kern	**kern
*	*	*clefF4	*clefG2
*	*	*k[f#c#g#]	*k[f#c#g#]
*M2/4	*M2/4	*M2/4	*M2/4
*A:	*A:	*A:	*A:
8D	8V	8r	8e'J
=176	=176	=176	=176
2T	2I	8A'L	(16g#LL
.	.	.	16aJJ)
.	.	8e'J	8b'
.	.	8c#'L	(16b#LL
.	.	.	16cc#JJ)
.	.	8A'J	8dd'
=177	=177	=177	=177
4.T	4.Vb	8G#'L	(16dd#LL
.	.	.	16eeJJ)
.	.	8B'J	8ff#'
.	.	8G#'L	(16dd#LL
.	.	.	16eeJJ)
8T	8V7	8E'J	8dd'
=178	=178	=178	=178
2T	2I	8A'L	(16b#LL
.	.	.	16cc#JJ)
.	.	8E'J	8b'
.	.	8C#'L	(16b#LL
.	.	.	16cc#JJ)
.	.	8AA'J	8dd'
=179	=179	=179	=179
4.T	4.Vb	8GG#'L	(16dd#LL
.	.	.	16eeJJ)
.	.	8BB'J	8ff#'
.	.	8GG#'L	(16dd#LL
.	.	.	16eeJJ)
8T	8V7	8EE'J	8dd'
=180	=180	=180	=180
4T	4I	8AA'L	(16b#LL
.	.	.	16cc#JJ)
.	.	8C#'J	8ee'
8P	8iib	8D'L	(16cc#LL
.	.	.	16bJJ)
8D	8V	8E'J	8ee'
=181	=181	=181	=181
4T	4I	8AA'	(16bLL
.	.	.	16aJJ)
.	.	8r	8aa'
4T	4IV	(16G#LL	(16gg#LL
.	.	16AJ)	16aaJJ)
.	.	8D'J	8ff#'
=182	=182	=182	=182
4T	4Ib	(16G#LL	(16gg#LL
.	.	16AJ)	16aaJJ)
.	.	8C#'J	8ee'
8T	8Cc	8EL	(16cc#LL
.	.	.	16bJJ)
8T	8V	8EEJ	8ee'
=183	=183	=183	=183
4T	4I	8AA	(16bLL
.	.	.	16aJJ)
.	.	8r	8ee'
4T	4IV	(16G#LL	(16gg#LL
.	.	16AJ)	16aaJJ)
.	.	8D'J	8ff#'
=184	=184	=184	=184
4T	4Ib	(16G#LL	(16gg#LL
.	.	16AJ)	16aaJJ)
.	.	8C#'J	8ee'
8T	8Cc	8EL	(16cc#LL
.	.	.	16bJJ)
8T	8V	8EEJ	8ee'
=185	=185	=185	=185
4.T	4.I	4AA	4a
.	.	8r	8r
*-	*-	*-	*-
